img/star.svg

<svg width="32" height="29" viewBox="0 0 32 29" fill="none" xmlns="http://www.w3.org/2000/svg">
<path d="M16 0.0012207L19.5922 11.0569H31.2169L21.8123 17.8898L25.4046 28.9455L16 22.1127L6.59543 28.9455L10.1877 17.8898L0.783081 11.0569H12.4078L16 0.0012207Z" fill="#1C1C33"/>
</svg>

<svg width="32" height="29" fill="none" xmlns="http://www.w3.org/2000/svg"><path d="M16 .001l3.592 11.056h11.625l-9.405 6.833 3.593 11.055L16 22.113l-9.405 6.832 3.593-11.055-9.405-6.833h11.625L16 0z" fill="#1C1C33"/></svg>
